public/img/ic-facebook.svg

<svg xmlns="http://www.w3.org/2000/svg" viewBox="0 0 32 32"><path d="M30.786 0H1.3A1.326 1.326 0 000 1.3v29.3A1.349 1.349 0 001.3 32h15.747V20h-4.011v-5h4.011v-4c0-4.1 2.607-6.2 6.318-6.2 1.805 0 3.309.2 3.71.2v4.3h-2.607c-2.006 0-2.507 1-2.507 2.4V15h5.014l-1 5h-4.014l.1 12h8.624a1.326 1.326 0 001.3-1.3V1.3A1.182 1.182 0 0030.786 0z" fill="#3f5d45"/></svg>

<svg xmlns="http://www.w3.org/2000/svg" viewBox="0 0 32 32"><defs><style>.a{fill:#3f5d45;}</style></defs><path class="a" d="M30.786,0H1.3A1.326,1.326,0,0,0,0,1.3V30.6A1.349,1.349,0,0,0,1.3,32H17.047V20H13.036V15h4.011V11c0-4.1,2.607-6.2,6.318-6.2,1.805,0,3.309.2,3.71.2V9.3H24.468c-2.006,0-2.507,1-2.507,2.4V15h5.014l-1,5H21.961l.1,12h8.624a1.326,1.326,0,0,0,1.3-1.3V1.3A1.182,1.182,0,0,0,30.786,0Z"/></svg>
